dist/icons/svgs/flag-outline.svg

<svg xmlns="http://www.w3.org/2000/svg" width="24" height="24" fill="currentcolor" class="icon-flag-outline" viewBox="0 0 24 24">
  <path d="M5.125 2.9375V4.03125L8.44531 3.21094C9.92969 2.85938 11.4922 3.01562 12.8594 3.71875C14.6562 4.61719 16.8047 4.61719 18.6016 3.71875L18.9922 3.52344C19.7734 3.13281 20.75 3.71875 20.75 4.61719V15.5156C20.75 16.0625 20.3984 16.4922 19.9297 16.6875L18.5625 17.1953C16.7656 17.8984 14.7734 17.7812 13.0156 16.9219C11.5312 16.1797 9.85156 15.9844 8.25 16.375L5.125 17.1562V21.0625C5.125 21.6094 4.69531 22 4.1875 22C3.64062 22 3.25 21.6094 3.25 21.0625V17.625V15.7109V4.5V2.9375C3.25 2.42969 3.64062 2 4.1875 2C4.69531 2 5.125 2.42969 5.125 2.9375ZM5.125 5.98438V15.2422L7.78125 14.5781C9.8125 14.0703 12 14.3047 13.875 15.2422C15.125 15.8672 16.5703 15.9453 17.8984 15.4375L18.875 15.0859V5.63281C16.6484 6.53125 14.1484 6.45312 12.0391 5.39844C11.0625 4.89062 9.92969 4.77344 8.875 5.04688L5.125 5.98438Z"/>
</svg>

<svg xmlns="http://www.w3.org/2000/svg" width="24" height="24" fill="currentColor" class="icon-flag-outline" viewBox="0 0 24 24">
  <path d="M5.125 2.938V4.03l3.32-.82c1.485-.352 3.047-.195 4.414.508a6.45 6.45 0 0 0 5.743 0l.39-.196c.781-.39 1.758.196 1.758 1.094v10.899c0 .547-.352.976-.82 1.172l-1.367.507c-1.797.703-3.79.586-5.547-.273a6.95 6.95 0 0 0-4.766-.547l-3.125.781v3.907c0 .546-.43.937-.937.937-.547 0-.938-.39-.938-.937V2.937c0-.508.39-.938.938-.938a.95.95 0 0 1 .937.938m0 3.046v9.258l2.656-.664a8.9 8.9 0 0 1 6.094.664 4.98 4.98 0 0 0 4.023.195l.977-.351V5.633c-2.227.898-4.727.82-6.836-.235a4.45 4.45 0 0 0-3.164-.351z"/>
</svg>
